src/assets/images/icons/networks/zkevm.svg

<svg width="200" height="200" viewBox="0 0 200 200" fill="none" xmlns="http://www.w3.org/2000/svg">
<g clip-path="url(#clip0_291_6204)">
<mask id="mask0_291_6204" style="mask-type:luminance" maskUnits="userSpaceOnUse" x="0" y="0" width="200" height="200">
<path d="M0 0H200V200H0V0Z" fill="white"/>
</mask>
<g mask="url(#mask0_291_6204)">
<path d="M174.337 39.397L112.807 3.85364C108.4 1.3282 103.409 -0.000488281 98.3288 -0.000488281C93.2491 -0.000488281 88.2578 1.3282 83.8504 3.85364L22.3203 39.397C17.9173 41.939 14.2612 45.5954 11.7196 49.9986C9.17806 54.4018 7.84062 59.3966 7.8418 64.4807V135.712C7.87859 140.759 9.23403 145.708 11.7737 150.07C14.3134 154.432 17.9491 158.054 22.3203 160.577L83.8504 196.121C88.2526 198.662 93.246 200 98.3288 200C103.412 200 108.405 198.662 112.807 196.121L174.337 160.577C178.74 158.035 182.396 154.378 184.937 149.975C187.479 145.572 188.816 140.578 188.816 135.494V64.2632C188.779 59.2161 187.423 54.2662 184.884 49.9045C182.344 45.5427 178.708 41.9205 174.337 39.397ZM22.3203 64.4807C22.3161 61.9354 22.983 59.4339 24.2539 57.2286C25.5248 55.0233 27.3546 53.1921 29.559 51.9195L91.0891 16.4127C93.287 15.1331 95.7849 14.4589 98.3283 14.4589C100.872 14.4589 103.37 15.1331 105.568 16.4127L167.099 51.9195C169.271 53.1737 171.08 54.9706 172.349 57.1343C173.618 59.2979 174.303 61.7541 174.337 64.2622V71.5009C174.319 77.1362 172.069 82.5347 168.081 86.5161C164.093 90.4974 158.69 92.7375 153.055 92.7466H43.6025C35.9305 92.7287 28.4608 95.2062 22.3203 99.8056V64.4807ZM174.337 135.494C174.342 138.04 173.675 140.541 172.404 142.746C171.133 144.951 169.303 146.782 167.099 148.054L105.568 183.56C103.367 184.831 100.87 185.501 98.3283 185.501C95.7867 185.501 93.2899 184.831 91.0891 183.56L29.559 148.054C27.3867 146.8 25.5774 145.003 24.3085 142.84C23.0395 140.676 22.3544 138.22 22.3203 135.712V128.473C22.3399 122.838 24.5895 117.44 28.5775 113.458C32.5655 109.477 37.9674 107.236 43.6025 107.226H153.055C160.727 107.245 168.197 104.767 174.337 100.168V135.494Z" fill="url(#paint0_linear_291_6204)"/>
<path d="M64.6708 60.8613H78.7143V81.8896H93.1928V60.8603C93.1931 58.9589 92.8188 57.0761 92.0912 55.3194C91.3637 53.5627 90.2972 51.9666 88.9527 50.6222C87.6082 49.2778 86.012 48.2114 84.2553 47.484C82.4985 46.7566 80.6157 46.3824 78.7143 46.3828H64.6708C62.7695 46.3828 60.8868 46.7573 59.1303 47.4849C57.3737 48.2126 55.7777 49.2791 54.4333 50.6235C53.089 51.968 52.0226 53.5641 51.2951 55.3207C50.5676 57.0773 50.1932 58.96 50.1934 60.8613V81.8896H64.6708V60.8613Z" fill="url(#paint1_linear_291_6204)"/>
<path d="M78.7143 139.113H64.6708V118.083H50.1934V139.113C50.1931 141.014 50.5674 142.897 51.2948 144.654C52.0223 146.41 53.0886 148.006 54.433 149.351C55.7774 150.695 57.3735 151.762 59.1301 152.49C60.8867 153.217 62.7695 153.591 64.6708 153.591H78.7143C80.6157 153.592 82.4986 153.218 84.2553 152.49C86.0121 151.763 87.6083 150.696 88.9527 149.352C90.2972 148.007 91.3635 146.411 92.0909 144.654C92.8182 142.897 93.1923 141.014 93.1918 139.113V118.083H78.7154L78.7143 139.113Z" fill="url(#paint2_linear_291_6204)"/>
<path d="M121.708 60.8613H135.788V81.8896H150.267V60.8603C150.267 58.9589 149.892 57.0762 149.165 55.3196C148.437 53.563 147.371 51.9669 146.026 50.6225C144.682 49.2781 143.085 48.2117 141.329 47.4843C139.572 46.7568 137.689 46.3825 135.788 46.3828H121.708C117.868 46.3831 114.186 47.9086 111.471 50.6238C108.756 53.3391 107.23 57.0216 107.23 60.8613V81.8896H121.708V60.8613Z" fill="url(#paint3_linear_291_6204)"/>
<path d="M135.788 139.114H121.708V118.084H107.23V139.114C107.23 141.015 107.604 142.898 108.332 144.654C109.059 146.411 110.126 148.007 111.47 149.352C112.815 150.696 114.411 151.762 116.167 152.49C117.924 153.217 119.807 153.592 121.708 153.591H135.788C139.628 153.591 143.31 152.066 146.025 149.35C147.37 148.006 148.437 146.41 149.164 144.654C149.892 142.898 150.267 141.015 150.267 139.114V118.084H135.788V139.114Z" fill="url(#paint4_linear_291_6204)"/>
</g>
</g>
<defs>
<linearGradient id="paint0_linear_291_6204" x1="98.3288" y1="9.49011e-05" x2="98.3288" y2="200" gradientUnits="userSpaceOnUse">
<stop stop-color="#A727C1"/>
<stop offset="1" stop-color="#7C40E4"/>
</linearGradient>
<linearGradient id="paint1_linear_291_6204" x1="71.6931" y1="46.3828" x2="71.6931" y2="81.8896" gradientUnits="userSpaceOnUse">
<stop stop-color="#A727C1"/>
<stop offset="1" stop-color="#7C40E4"/>
</linearGradient>
<linearGradient id="paint2_linear_291_6204" x1="71.6931" y1="118.083" x2="71.6931" y2="153.591" gradientUnits="userSpaceOnUse">
<stop stop-color="#A727C1"/>
<stop offset="1" stop-color="#7C40E4"/>
</linearGradient>
<linearGradient id="paint3_linear_291_6204" x1="128.748" y1="46.3828" x2="128.748" y2="81.8896" gradientUnits="userSpaceOnUse">
<stop stop-color="#A727C1"/>
<stop offset="1" stop-color="#7C40E4"/>
</linearGradient>
<linearGradient id="paint4_linear_291_6204" x1="128.748" y1="118.084" x2="128.748" y2="153.591" gradientUnits="userSpaceOnUse">
<stop stop-color="#A727C1"/>
<stop offset="1" stop-color="#7C40E4"/>
</linearGradient>
<clipPath id="clip0_291_6204">
<rect width="200" height="200" fill="white"/>
</clipPath>
</defs>
</svg>

<svg xmlns="http://www.w3.org/2000/svg" width="200" height="200" fill="none"><g clip-path="url(#a)"><mask id="b" width="200" height="200" x="0" y="0" maskUnits="userSpaceOnUse" style="mask-type:luminance"><path fill="#fff" d="M0 0h200v200H0z"/></mask><g mask="url(#b)"><path fill="url(#c)" d="m174.337 39.397-61.53-35.543a29.12 29.12 0 0 0-28.957 0L22.32 39.397A28.96 28.96 0 0 0 7.842 64.481v71.231a28.95 28.95 0 0 0 14.478 24.865l61.53 35.544a28.96 28.96 0 0 0 28.957 0l61.53-35.544a28.96 28.96 0 0 0 14.479-25.083v-71.23a28.97 28.97 0 0 0-14.479-24.867M22.32 64.481A14.48 14.48 0 0 1 29.56 51.92l61.53-35.507a14.39 14.39 0 0 1 14.479 0l61.531 35.507a14.48 14.48 0 0 1 7.238 12.342v7.239a21.314 21.314 0 0 1-21.282 21.246H43.602a35.36 35.36 0 0 0-21.282 7.059zm152.017 71.013a14.46 14.46 0 0 1-7.238 12.56l-61.531 35.506a14.48 14.48 0 0 1-14.479 0l-61.53-35.506a14.48 14.48 0 0 1-7.239-12.342v-7.239a21.323 21.323 0 0 1 21.283-21.247h109.452a35.35 35.35 0 0 0 21.282-7.058z"/><path fill="url(#d)" d="M64.67 60.861h14.044V81.89h14.479V60.86a14.474 14.474 0 0 0-14.479-14.477H64.671A14.48 14.48 0 0 0 50.193 60.86V81.89h14.478z"/><path fill="url(#e)" d="M78.714 139.113H64.671v-21.03H50.193v21.03a14.48 14.48 0 0 0 8.937 13.377 14.5 14.5 0 0 0 5.54 1.101h14.044a14.473 14.473 0 0 0 14.478-14.478v-21.03H78.715z"/><path fill="url(#f)" d="M121.708 60.861h14.08V81.89h14.479V60.86a14.5 14.5 0 0 0-4.241-10.237 14.48 14.48 0 0 0-10.238-4.24h-14.08A14.48 14.48 0 0 0 107.23 60.86V81.89h14.478z"/><path fill="url(#g)" d="M135.788 139.114h-14.08v-21.03H107.23v21.03a14.48 14.48 0 0 0 8.937 13.376 14.5 14.5 0 0 0 5.541 1.101h14.08a14.47 14.47 0 0 0 13.376-8.937 14.5 14.5 0 0 0 1.103-5.54v-21.03h-14.479z"/></g></g><defs><linearGradient id="c" x1="98.329" x2="98.329" y1="0" y2="200" gradientUnits="userSpaceOnUse"><stop stop-color="#A727C1"/><stop offset="1" stop-color="#7C40E4"/></linearGradient><linearGradient id="d" x1="71.693" x2="71.693" y1="46.383" y2="81.89" gradientUnits="userSpaceOnUse"><stop stop-color="#A727C1"/><stop offset="1" stop-color="#7C40E4"/></linearGradient><linearGradient id="e" x1="71.693" x2="71.693" y1="118.083" y2="153.591" gradientUnits="userSpaceOnUse"><stop stop-color="#A727C1"/><stop offset="1" stop-color="#7C40E4"/></linearGradient><linearGradient id="f" x1="128.748" x2="128.748" y1="46.383" y2="81.89" gradientUnits="userSpaceOnUse"><stop stop-color="#A727C1"/><stop offset="1" stop-color="#7C40E4"/></linearGradient><linearGradient id="g" x1="128.748" x2="128.748" y1="118.084" y2="153.591" gradientUnits="userSpaceOnUse"><stop stop-color="#A727C1"/><stop offset="1" stop-color="#7C40E4"/></linearGradient><clipPath id="a"><path fill="#fff" d="M0 0h200v200H0z"/></clipPath></defs></svg>
